X: 4287
T: HANOVER SQUARE.
%R: reel
N: The "D.C." should perhaps be at the end of the 2nd strain, not the 1st.
B: James Kerr "Merry Melodies" v.4 p.30 #287
Z: 2016 John Chambers <jc:trillian.mit.edu>
M: C
L: 1/8
K: D
A2 | dcdf edcB | A2A2 A2(FE) |\
[1,3 DEFG ABcd | e^def e2 :|\
[2,4 DFAd fedc | d2f2"_D.C."d2 |:\
(cB) |\
ABcd e2(fe) |
dcdB A3(GF) |\
GBAG FAGF | E2E2 E2A2 |\
dcdf edcB | A2A2 A2(FE) |\
DFAd fedc | d2f2d2 :|

%%sep 1 1 500
%%sep 1 1 500

